ui/StatusQ/src/assets/img/icons/unpin.svg

<svg fill="none" height="24" viewBox="0 0 24 24" width="24" xmlns="http://www.w3.org/2000/svg"><g fill="#000"><path clip-rule="evenodd" d="m3.37002 1.97c-.29311-.29267-.76799-.29231-1.06066.0008s-.29232.76799.0008 1.06066l3.61483 3.60941c.11812.11795.16813.28684.14309.45187-.04487.29588-.06814.59886-.06814.90727 0 2.90769 2.06834 5.33229 4.81396 5.88279.2473.0496.436.2601.436.5123v6.6049c0 .4142.3358.75.75.75s.75-.3358.75-.75v-6.6049c0-.1568.073-.2975.1876-.3934.1298-.1086.314-.0453.4338.0743l6.9423 6.9319c.2931.2926.768.2923 1.0607-.0008.2926-.2931.2923-.768-.0008-1.0607l-6.6211-6.6111c-.0008-.0008-.0006-.0022.0004-.0027s.0012-.0018.0004-.0026l-1.1308-1.1291c-.001-.001-.0025-.0013-.0038-.0008-.0014.0005-.0029.0002-.0039-.0008l-5.81649-5.80775c-.00101-.00101-.00133-.00252-.00082-.00385s.00019-.00284-.00082-.00385l-1.13077-1.12908c-.00079-.00079-.00212-.00058-.00263.00041s-.00183.0012-.00262.00041zm7.50348 9.612c.3233.3228.0812.82-.3504.6701-1.29515-.4498-2.32137-1.4746-2.77303-2.76895-.15053-.43138.34625-.67421.66956-.35139z" fill-rule="evenodd"/><path d="m16.4999 8.00001c0 1.07007-.3735 2.05289-.9972 2.82529-.1742.2157-.1774.5323.0188.7282l.3533.3528c.1948.1945.512.1962.6907-.0131.8945-1.0479 1.4344-2.40751 1.4344-3.89319 0-3.31371-2.6863-6-6-6-1.4889 0-2.85114.54234-3.89996 1.44024-.20912.17904-.20692.49622-.01212.69074l.35331.35277c.19621.19592.51284.19228.72829.01774.77315-.62629 1.75798-1.00149 2.83048-1.00149 2.4853 0 4.5 2.01472 4.5 4.5z"/><path d="m14.8955 7.28455c0-.82842-.6482-1.67562-1.4478-1.89227-.7996-.21664-1.4478.2793-1.4478 1.10773s.6482 1.67563 1.4478 1.89227c.7996.21665 1.4478-.2793 1.4478-1.10773z"/></g></svg>

<svg width="24" height="24" viewBox="0 0 24 24" fill="none" xmlns="http://www.w3.org/2000/svg">
<path fill-rule="evenodd" clip-rule="evenodd" d="M3.37002 1.97C3.07691 1.67733 2.60203 1.67769 2.30936 1.9708C2.01669 2.26391 2.01704 2.73879 2.31016 3.03146L5.92499 6.64087C6.04311 6.75882 6.09312 6.92771 6.06808 7.09274C6.02321 7.38862 5.99994 7.6916 5.99994 8.00001C5.99994 10.9077 8.06828 13.3323 10.8139 13.8828C11.0612 13.9324 11.2499 14.1429 11.2499 14.3951V21C11.2499 21.4142 11.5857 21.75 11.9999 21.75C12.4141 21.75 12.7499 21.4142 12.7499 21V14.3951C12.7499 14.2383 12.8229 14.0976 12.9375 14.0017C13.0673 13.8931 13.2515 13.9564 13.3713 14.076L20.3136 21.0079C20.6067 21.3005 21.0816 21.3002 21.3743 21.0071C21.6669 20.714 21.6666 20.2391 21.3735 19.9464L14.7524 13.3353C14.7516 13.3345 14.7518 13.3331 14.7528 13.3326C14.7538 13.3321 14.754 13.3308 14.7532 13.33L13.6224 12.2009C13.6214 12.1999 13.6199 12.1996 13.6186 12.2001C13.6172 12.2006 13.6157 12.2003 13.6147 12.1993L7.79821 6.39155C7.7972 6.39054 7.79688 6.38903 7.79739 6.3877C7.7979 6.38637 7.79758 6.38486 7.79657 6.38385L6.6658 5.25477C6.66501 5.25398 6.66368 5.25419 6.66317 5.25518C6.66266 5.25617 6.66134 5.25638 6.66055 5.25559L3.37002 1.97ZM10.8735 11.582C11.1968 11.9048 10.9547 12.402 10.5231 12.2521C9.22795 11.8023 8.20173 10.7775 7.75007 9.48315C7.59954 9.05177 8.09632 8.80894 8.41963 9.13176L10.8735 11.582Z" fill="black"/>
<path d="M16.4999 8.00001C16.4999 9.07008 16.1264 10.0529 15.5027 10.8253C15.3285 11.041 15.3253 11.3576 15.5215 11.5535L15.8748 11.9063C16.0696 12.1008 16.3868 12.1025 16.5655 11.8932C17.46 10.8453 17.9999 9.48569 17.9999 8.00001C17.9999 4.6863 15.3136 2.00001 11.9999 2.00001C10.511 2.00001 9.14876 2.54235 8.09994 3.44025C7.89082 3.61929 7.89302 3.93647 8.08782 4.13099L8.44113 4.48376C8.63734 4.67968 8.95397 4.67604 9.16942 4.5015C9.94257 3.87521 10.9274 3.50001 11.9999 3.50001C14.4852 3.50001 16.4999 5.51473 16.4999 8.00001Z" fill="black"/>
<path d="M14.8955 7.28455C14.8955 6.45613 14.2473 5.60893 13.4477 5.39228C12.6481 5.17564 11.9999 5.67158 11.9999 6.50001C11.9999 7.32844 12.6481 8.17564 13.4477 8.39228C14.2473 8.60893 14.8955 8.11298 14.8955 7.28455Z" fill="black"/>
</svg>
